X: 41988
T: Walls Of Liscarrol, The
R: jig
M: 6/8
K: Dmixolydian
|:d|dcA AGE|GEE D2E|GEE cEE|GAB cde|
dcA AGE|GEE D2E|GEE cEE|D3 D2:|
|:dB/c/d ecA|dB/c/d ecA|GEE cEE|GAB cde|
dB/c/d ecA|dB/c/d ecA|GEE cEE|D3 D3|
|:dB/c/d ecA|dB/c/d ecA|GEE cEE|GAB cde
dcA AGE|GEE D2E|GEE cEE|D3 D3|

